X:4
T:South Downs Jig
R:jig
S:Robert Harbron
M:6/8
L:1/8
K:G
|: d | dcA G3 | EFG AFE | DEF GAB | cde d2d |
dcA G3 | EFG AFE | DEF GAB | cAF G2 :|
B | Bcd e2c | d2B c2A | Bcd e2c | [M:9/8]d2B c2B A3 |
[M:6/8]DGF E3 | cBA FED | DEF GAB |1 cAF G2 :|2 cAF G3 |]

